src/icons/svgs/24/file.svg

<svg width="24" height="24" viewBox="0 0 24 24" fill="none" xmlns="http://www.w3.org/2000/svg">
<path d="M19.2208 5.64766L16.1113 2.73203C15.6083 2.2634 14.9292 2 14.225 2H6.66667C5.19375 2 4 3.11914 4 4.5L4.00025 19.5C4.00025 20.8809 5.194 22 6.66692 22H17.3333C18.8 22 20 20.875 20 19.5V7.41406C20 6.75391 19.7208 6.11719 19.2208 5.64766ZM17.3333 20.125H6.6675C6.29933 20.125 6.03833 19.8452 6.00083 19.5352L6 4.50508C6 4.15988 6.29846 3.88008 6.66667 3.88008H13.3333V7C13.3333 7.69023 13.9304 8.25 14.6667 8.25H17.9625V19.5C18 19.8438 17.7 20.125 17.3333 20.125Z" fill="black"/>
</svg>

<svg width="24" height="24" viewBox="0 0 24 24" xmlns="http://www.w3.org/2000/svg">
    <path d="m19.22 5.648-3.109-2.916A2.773 2.773 0 0 0 14.225 2H6.667C5.194 2 4 3.12 4 4.5v15C4 20.88 5.194 22 6.667 22h10.666C18.8 22 20 20.875 20 19.5V7.414c0-.66-.28-1.297-.78-1.766Zm-1.887 14.477H6.668a.67.67 0 0 1-.667-.59L6 4.505c0-.345.298-.625.667-.625h6.666V7c0 .69.597 1.25 1.334 1.25h3.295V19.5c.038.344-.262.625-.629.625Z"/>
</svg>
